X: 52
T:Boyne,The. HA.051
M:C
L:1/8
Q:180
C:"....A New ..() ..()"
S:Henry Atkinson's original MS,Hartburn,N'umberland,1694.
R:March
O:England
A:Hartburn,Northumberland
N:Battle of the Boyne,July 1690.
H:1/8
Z:vmp.Chris Partington.Jan.2004
K:G
d|B2BB G2GG|D2DD A3A|B2G2 G3G|GABG c4|!
c2cc B2BB|A2A2 F3F|G2G2 E2E2|(F3 E/F/) G3:|!
|:A|F2D2D3D|D2DDA3A|B2AG G3G|GABG c4|!
c2cc B2BB|A2A2 Bcd2|g2d2 edcB|ABcd B2G2:|!
|:g2G2g2G2|gfed g2G2|G2GG F3F|E2E2c4|!
c2c2B3B|A2A2(f3e/f/)|g2d2 edcB|ABcd B2G2:|]
